!! 00000] TT[WS
!!!OTL: Zai liushu
!!!ARE: Asia, China, Shanxi Hequ
!! Ethnic Group: Han
!! WII, 80 (2)
!!!SCT: J0519
!!!YEM: Copyright 1995, estate of Helmut Schaffrath.
**kern
*ICvox
*Ivox
*M2/4
*k[b-]
*F:
{4cc
8a
8cc
=1
4ff
8dd
8ff
=2
8dd
8cc
8a
8cc
=3
2g}
=4
{8g
16g
16f
8d
8f
=5
4g
8a
8cc
=6
2g}
=7
{4ff
8dd
8ff
=8
8cc
8a
4cc
=9
4g
8g
8d
=10
2c}
=11
{8g
16g
16g
4c
=12
8g
16g
16g
4c
=13
8.a
16ff
8dd
8cc
=14
8cc
8d
4f}
=15
{8g
16g
16a
8f
8d
=16
4c
8d
8f
=17
2c}
==
!!!AGN: Xiaodiao. Qingge, Sichun
!!!ONB: ESAC (Essen Associative Code) Database: CHINA
!!!AMT: simple duple
!!!AIN: vox
!!!EED: Helmut Schaffrath
!!!EEV: 1.0
*-
